X: 1472
T: George Bond's Schottische
B: australian traditional tunes wiki
M:4/4
L:1/8
Q: 1/4=100
K:C
V:1 
D2|"C"E>F E>GC4|"Dm"D>E D>AD2C2|"G7"B4 "Dm"A>G A>G |"C"E6D2|
E>D E>GC2E2|"Dm"F>E F>AD2C2|"G7"B4"Dm"A>G "G7"A>B|"C"c2c2c>G "G7"A>B|
"C"c2-c>B "Am"A>G E>C|"Dm"D2F>GA2G2|"G7"B4 "Dm"A>G A>G|"C"E4-E>G "G7"A>B|
"C"c2-c>B "Am"A>G E>C|"Dm"D2F>GA2G2|"G7"B4 "Dm"A>G "G7"A>B|"C"c6||
% abcbook-tune_id 6342d53a7ab5d142446e9baa


% abcbook-boost 0
% abcbook-tablature 
% abcbook-transpose 
% abcbook-lastupdated 1665324366801
% abcbook-soundfonts 
% abcbook-repeats 1
% NFF Book 2016

